src/images/logo.svg

<svg width="38" height="38" viewBox="0 0 38 38" fill="none" xmlns="http://www.w3.org/2000/svg">
<path d="M0 12.6667C0 8.23292 0 6.01604 0.862865 4.32258C1.62186 2.83296 2.83296 1.62186 4.32258 0.862865C6.01604 0 8.23292 0 12.6667 0H25.3333C29.7671 0 31.984 0 33.6774 0.862865C35.167 1.62186 36.3781 2.83296 37.1371 4.32258C38 6.01604 38 8.23292 38 12.6667V25.3333C38 29.7671 38 31.984 37.1371 33.6774C36.3781 35.167 35.167 36.3781 33.6774 37.1371C31.984 38 29.7671 38 25.3333 38H12.6667C8.23292 38 6.01604 38 4.32258 37.1371C2.83296 36.3781 1.62186 35.167 0.862865 33.6774C0 31.984 0 29.7671 0 25.3333V12.6667Z" fill="black"/>
<circle cx="19" cy="19" r="11" fill="white"/>
<path fill-rule="evenodd" clip-rule="evenodd" d="M15.1538 19C15.1538 21.1242 16.8758 22.8462 19 22.8462C21.1242 22.8462 22.8462 21.1242 22.8462 19H25C25 22.3137 22.3137 25 19 25C15.6863 25 13 22.3137 13 19H15.1538Z" fill="black"/>
</svg>

<svg xmlns="http://www.w3.org/2000/svg" width="38" height="38" fill="none" xmlns:v="https://vecta.io/nano"><path d="M0 12.667c0-4.434 0-6.651.863-8.344.759-1.49 1.97-2.701 3.46-3.46C6.016 0 8.233 0 12.667 0h12.667c4.434 0 6.651 0 8.344.863 1.49.759 2.701 1.97 3.46 3.46C38 6.016 38 8.233 38 12.667v12.667c0 4.434 0 6.651-.863 8.344-.759 1.49-1.97 2.701-3.46 3.46-1.693.863-3.91.863-8.344.863H12.667c-4.434 0-6.651 0-8.344-.863-1.49-.759-2.701-1.97-3.46-3.46C0 31.984 0 29.767 0 25.333V12.667z" fill="#000"/><circle cx="19" cy="19" r="11" fill="#fff"/><path fill-rule="evenodd" d="M15.154 19c0 2.124 1.722 3.846 3.846 3.846s3.846-1.722 3.846-3.846H25a6 6 0 1 1-12 0h2.154z" fill="#000"/></svg>
